public/images/hashed/a7edca28118ffd3113638b3c23a2aa5d.svg

<svg xmlns="http://www.w3.org/2000/svg" width="80" height="80"><defs><linearGradient id="a" x1="0%" x2="100%" y1="100%" y2="0%"><stop offset="0%" stop-color="#B0084D"/><stop offset="100%" stop-color="#FF4F8B"/></linearGradient></defs><g fill="none" fill-rule="evenodd"><path fill="url(#a)" d="M0 0h80v80H0z"/><path fill="#FFF" d="M26 19h3v-2h-3v2Zm-5 0h3v-2h-3v2Zm-5 0h3v-2h-3v2Zm-2 3h52v-8H14v8Zm53-10H13a1 1 0 0 0-1 1v54a1 1 0 0 0 1 1h33v-2H14V24h52v42h-7v2h8a1 1 0 0 0 1-1V13a1 1 0 0 0-1-1ZM40 50.878a5.668 5.668 0 0 1-5.661-5.661c0-3.121 2.54-5.66 5.661-5.66a5.667 5.667 0 0 1 5.661 5.66A5.668 5.668 0 0 1 40 50.878Zm0-13.321c-4.225 0-7.661 3.436-7.661 7.66s3.436 7.661 7.661 7.661 7.661-3.437 7.661-7.661-3.436-7.66-7.661-7.66Zm15.652 9.911-1.706-.097c-.455-.023-.925.301-1.032.778a13.145 13.145 0 0 1-1.709 4.128 1 1 0 0 0 .18 1.28l1.274 1.137-3.182 3.182-1.133-1.269a1 1 0 0 0-1.281-.18 13.105 13.105 0 0 1-4.131 1.712 1 1 0 0 0-.778 1.033l.097 1.698h-4.502l.098-1.7a1 1 0 0 0-.778-1.032 13.148 13.148 0 0 1-4.13-1.714.998.998 0 0 0-1.28.18l-1.136 1.273-3.182-3.183 1.272-1.135a1 1 0 0 0 .18-1.28 13.097 13.097 0 0 1-1.709-4.13 1.02 1.02 0 0 0-1.032-.778l-1.704.097v-4.502l1.71.098c.46.018.923-.301 1.032-.778a13.108 13.108 0 0 1 1.711-4.122 1 1 0 0 0-.18-1.28l-1.28-1.143 3.183-3.183 1.142 1.28a1 1 0 0 0 1.279.18 13.132 13.132 0 0 1 4.123-1.707 1 1 0 0 0 .779-1.033l-.098-1.713h4.502l-.097 1.715a1 1 0 0 0 .778 1.032c1.463.332 2.848.906 4.119 1.709.413.26.955.184 1.28-.18l1.145-1.283 3.183 3.183-1.278 1.14a1.002 1.002 0 0 0-.18 1.281 13.093 13.093 0 0 1 1.711 4.125c.108.476.579.795 1.032.777l1.708-.098v4.502Zm.944-6.559-1.944.111a15.069 15.069 0 0 0-1.325-3.194l1.454-1.297a1.002 1.002 0 0 0 .041-1.453l-4.68-4.68a.97.97 0 0 0-.736-.293 1 1 0 0 0-.718.334l-1.301 1.458a15.1 15.1 0 0 0-3.19-1.322l.111-1.951a1.002 1.002 0 0 0-.998-1.057h-6.62a1 1 0 0 0-.998 1.058l.112 1.948c-1.113.317-2.181.76-3.194 1.322l-1.298-1.456a1 1 0 0 0-1.454-.041l-4.68 4.68a.996.996 0 0 0 .041 1.453l1.456 1.299a15.065 15.065 0 0 0-1.325 3.192l-1.946-.111a1 1 0 0 0-1.056.999v6.619a1 1 0 0 0 1.056.998l1.94-.11c.317 1.115.76 2.187 1.323 3.199l-1.448 1.292a1.002 1.002 0 0 0-.041 1.453l4.68 4.681a.998.998 0 0 0 1.454-.042l1.292-1.448a15.054 15.054 0 0 0 3.199 1.327l-.111 1.936a1.001 1.001 0 0 0 .998 1.057h6.62a.998.998 0 0 0 .998-1.057l-.111-1.934a15.063 15.063 0 0 0 3.202-1.326l1.289 1.445a.998.998 0 0 0 1.454.042l4.68-4.681a.996.996 0 0 0-.041-1.453l-1.451-1.294a15.071 15.071 0 0 0 1.324-3.197l1.942.11a1.002 1.002 0 0 0 1.056-.998v-6.619a1 1 0 0 0-1.056-.999Z"/></g></svg>

<?xml version="1.0" encoding="UTF-8"?>
<svg width="80px" height="80px" viewBox="0 0 80 80" version="1.1" xmlns="http://www.w3.org/2000/svg" xmlns:xlink="http://www.w3.org/1999/xlink">
    <!-- Generator: Sketch 64 (93537) - https://sketch.com -->
    <title>Icon-Architecture/64/Arch_AWS-Management-Console_64</title>
    <desc>Created with Sketch.</desc>
    <defs>
        <linearGradient x1="0%" y1="100%" x2="100%" y2="0%" id="linearGradient-1">
            <stop stop-color="#B0084D" offset="0%"></stop>
            <stop stop-color="#FF4F8B" offset="100%"></stop>
        </linearGradient>
    </defs>
    <g id="Icon-Architecture/64/Arch_AWS-Management-Console_64" stroke="none" stroke-width="1" fill="none" fill-rule="evenodd">
        <g id="Icon-Architecture-BG/64/Management-Governance" fill="url(#linearGradient-1)">
            <rect id="Rectangle" x="0" y="0" width="80" height="80"></rect>
        </g>
        <path d="M26,19 L29,19 L29,17 L26,17 L26,19 Z M21,19 L24,19 L24,17 L21,17 L21,19 Z M16,19 L19,19 L19,17 L16,17 L16,19 Z M14,22 L66,22 L66,14 L14,14 L14,22 Z M67,12 L13,12 C12.447,12 12,12.448 12,13 L12,67 C12,67.552 12.447,68 13,68 L46,68 L46,66 L14,66 L14,24 L66,24 L66,66 L59,66 L59,68 L67,68 C67.553,68 68,67.552 68,67 L68,13 C68,12.448 67.553,12 67,12 L67,12 Z M40,50.878 C36.879,50.878 34.339,48.338 34.339,45.217 C34.339,42.096 36.879,39.557 40,39.557 C43.121,39.557 45.661,42.096 45.661,45.217 C45.661,48.338 43.121,50.878 40,50.878 L40,50.878 Z M40,37.557 C35.775,37.557 32.339,40.993 32.339,45.217 C32.339,49.441 35.775,52.878 40,52.878 C44.225,52.878 47.661,49.441 47.661,45.217 C47.661,40.993 44.225,37.557 40,37.557 L40,37.557 Z M55.652,47.468 L53.946,47.371 C53.491,47.348 53.021,47.672 52.914,48.149 C52.584,49.613 52.009,51.001 51.205,52.277 C50.944,52.69 51.021,53.231 51.385,53.557 L52.659,54.694 L49.477,57.876 L48.344,56.607 C48.018,56.241 47.476,56.166 47.063,56.427 C45.791,57.231 44.401,57.808 42.932,58.139 C42.455,58.247 42.126,58.684 42.154,59.172 L42.251,60.87 L37.749,60.87 L37.847,59.17 C37.875,58.683 37.546,58.246 37.069,58.138 C35.604,57.806 34.214,57.23 32.939,56.424 C32.526,56.164 31.984,56.237 31.659,56.604 L30.523,57.877 L27.341,54.694 L28.613,53.559 C28.978,53.234 29.054,52.692 28.793,52.279 C27.99,51.008 27.415,49.619 27.084,48.149 C26.977,47.672 26.518,47.348 26.052,47.371 L24.348,47.468 L24.348,42.966 L26.058,43.064 C26.518,43.082 26.981,42.763 27.09,42.286 C27.421,40.824 27.996,39.437 28.801,38.164 C29.062,37.75 28.985,37.209 28.621,36.884 L27.341,35.741 L30.524,32.558 L31.666,33.838 C31.991,34.203 32.533,34.277 32.945,34.018 C34.218,33.216 35.604,32.641 37.068,32.311 C37.546,32.203 37.875,31.767 37.847,31.278 L37.749,29.565 L42.251,29.565 L42.154,31.28 C42.126,31.768 42.455,32.204 42.932,32.312 C44.395,32.644 45.78,33.218 47.051,34.021 C47.464,34.281 48.006,34.205 48.331,33.841 L49.476,32.558 L52.659,35.741 L51.381,36.881 C51.017,37.207 50.94,37.749 51.201,38.162 C52.005,39.432 52.58,40.82 52.912,42.287 C53.02,42.763 53.491,43.082 53.944,43.064 L55.652,42.966 L55.652,47.468 Z M56.596,40.909 L54.652,41.02 C54.334,39.907 53.89,38.837 53.327,37.826 L54.781,36.529 C54.986,36.346 55.107,36.086 55.115,35.811 C55.123,35.536 55.017,35.27 54.822,35.076 L50.142,30.396 C49.946,30.201 49.687,30.089 49.406,30.103 C49.131,30.111 48.872,30.231 48.688,30.437 L47.387,31.895 C46.376,31.333 45.309,30.891 44.197,30.573 L44.308,28.622 C44.323,28.348 44.226,28.079 44.036,27.878 C43.848,27.679 43.585,27.565 43.31,27.565 L36.69,27.565 C36.415,27.565 36.152,27.679 35.964,27.879 C35.774,28.079 35.677,28.348 35.692,28.623 L35.804,30.571 C34.691,30.888 33.623,31.331 32.61,31.893 L31.312,30.437 C31.128,30.231 30.869,30.111 30.594,30.103 C30.316,30.091 30.054,30.201 29.858,30.396 L25.178,35.076 C24.983,35.27 24.877,35.536 24.885,35.811 C24.893,36.086 25.014,36.346 25.219,36.529 L26.675,37.828 C26.111,38.84 25.668,39.909 25.35,41.02 L23.404,40.909 C23.132,40.892 22.86,40.992 22.661,41.181 C22.461,41.37 22.348,41.633 22.348,41.908 L22.348,48.527 C22.348,48.802 22.461,49.065 22.661,49.254 C22.86,49.442 23.133,49.542 23.404,49.525 L25.344,49.415 C25.661,50.53 26.104,51.602 26.667,52.614 L25.219,53.906 C25.014,54.089 24.893,54.349 24.885,54.624 C24.877,54.899 24.983,55.165 25.178,55.359 L29.858,60.04 C30.054,60.234 30.313,60.343 30.594,60.332 C30.869,60.324 31.129,60.204 31.312,59.998 L32.604,58.55 C33.618,59.115 34.689,59.559 35.803,59.877 L35.692,61.813 C35.677,62.087 35.774,62.356 35.963,62.556 C36.152,62.756 36.415,62.87 36.69,62.87 L43.31,62.87 C43.585,62.87 43.848,62.756 44.036,62.556 C44.226,62.356 44.323,62.087 44.308,61.813 L44.197,59.879 C45.313,59.561 46.386,59.117 47.399,58.553 L48.688,59.998 C48.871,60.204 49.131,60.324 49.406,60.332 C49.663,60.346 49.948,60.234 50.142,60.04 L54.822,55.359 C55.017,55.165 55.123,54.899 55.115,54.624 C55.107,54.349 54.986,54.089 54.781,53.906 L53.33,52.612 C53.894,51.598 54.337,50.527 54.654,49.415 L56.596,49.525 C56.866,49.542 57.14,49.442 57.339,49.254 C57.539,49.065 57.652,48.802 57.652,48.527 L57.652,41.908 C57.652,41.633 57.539,41.37 57.339,41.181 C57.14,40.992 56.867,40.893 56.596,40.909 L56.596,40.909 Z" id="AWS-Management-Console_Icon_64_Squid" fill="#FFFFFF"></path>
    </g>
</svg>
